admin/src/images/Documentation.svg

<svg width="24" height="24" viewBox="0 0 24 24" fill="none" xmlns="http://www.w3.org/2000/svg">
<path fill-rule="evenodd" clip-rule="evenodd" d="M3 3C3 1.89543 3.89543 1 5 1H15C15.2652 1 15.5196 1.10536 15.7071 1.29289L20.7071 6.29289C20.8946 6.48043 21 6.73478 21 7V21C21 22.1046 20.1046 23 19 23H5C3.89544 23 3 22.1046 3 21V3ZM14.5858 3H5V21H19V7.41421L14.5858 3ZM8 9.00415C8 8.45187 8.44772 8.00415 9 8.00415H15C15.5523 8.00415 16 8.45187 16 9.00415C16 9.55644 15.5523 10.0042 15 10.0042H13.0042L13 10C12.5 10 12.5564 10.0042 12.0042 10.0042H12C11.4496 10.0019 11.5 10 11 10L11.0042 10.0042H9C8.44772 10.0042 8 9.55644 8 9.00415Z" fill="black" fill-opacity="0.85"/>
<path d="M8 15.5C8 14.9477 8.44772 14.5 9 14.5H15C15.5523 14.5 16 14.9477 16 15.5C16 16.0523 15.5523 16.5 15 16.5H13.0042L13 16.4958C12.5 16.4958 12.5564 16.5 12.0042 16.5H12C11.4496 16.4978 11.5 16.4958 11 16.4958L11.0042 16.5H9C8.44772 16.5 8 16.0523 8 15.5Z" fill="black" fill-opacity="0.85"/>
</svg>

<svg width="24" height="24" viewBox="0 0 24 24" fill="none" xmlns="http://www.w3.org/2000/svg"><path fill-rule="evenodd" clip-rule="evenodd" d="M3 3a2 2 0 012-2h10a1 1 0 01.707.293l5 5A1 1 0 0121 7v14a2 2 0 01-2 2H5a2 2 0 01-2-2V3zm11.586 0H5v18h14V7.414L14.586 3zM8 9.004a1 1 0 011-1h6a1 1 0 110 2h-1.996L13 10c-.5 0-.444.004-.996.004H12c-.55-.002-.5-.004-1-.004l.004.004H9a1 1 0 01-1-1z" fill="#000" fill-opacity=".85"/><path d="M8 15.5a1 1 0 011-1h6a1 1 0 110 2h-1.996L13 16.496c-.5 0-.444.004-.996.004H12c-.55-.002-.5-.004-1-.004l.004.004H9a1 1 0 01-1-1z" fill="#000" fill-opacity=".85"/></svg>
